cdn/fa/svgs/sharp-solid/up-from-bracket.svg

<svg xmlns="http://www.w3.org/2000/svg" viewBox="0 0 448 512"><!--! Font Awesome Pro 6.5.2 by @fontawesome - https://fontawesome.com License - https://fontawesome.com/license (Commercial License) Copyright 2024 Fonticons, Inc. --><path d="M64 160L224 0 384 160l0 32-96 0 0 160-128 0 0-160-96 0 0-32zm0 192l0 96 320 0 0-96 0-32 64 0 0 32 0 128 0 32-32 0L32 512 0 512l0-32L0 352l0-32 64 0 0 32z"/></svg>

<svg xmlns="http://www.w3.org/2000/svg" viewBox="0 0 448 512"><!--! Font Awesome Pro 6.5.1 by @fontawesome - https://fontawesome.com License - https://fontawesome.com/license (Commercial License) Copyright 2023 Fonticons, Inc. --><path d="M64 160L224 0 384 160v32H288V352H160V192H64V160zm0 192v96H384V352 320h64v32V480v32H416 32 0V480 352 320H64v32z"/></svg>
